teeny/solid/tag.svg

<svg width="15" height="15" viewBox="0 0 15 15" fill="none" xmlns="http://www.w3.org/2000/svg">
<path d="M10 4.5C10 4.22386 10.2239 4 10.5 4C10.7761 4 11 4.22386 11 4.5C11 4.77614 10.7761 5 10.5 5C10.2239 5 10 4.77614 10 4.5Z" fill="black"/>
<path fill-rule="evenodd" clip-rule="evenodd" d="M7.14645 0.146447C7.24021 0.0526784 7.36739 0 7.5 0H13.5C14.3284 0 15 0.671573 15 1.5V7.5C15 7.63261 14.9473 7.75979 14.8536 7.85355L7.85355 14.8536C7.65829 15.0488 7.34171 15.0488 7.14645 14.8536L0.146447 7.85355C-0.0488155 7.65829 -0.0488155 7.34171 0.146447 7.14645L7.14645 0.146447ZM10.5 3C9.67157 3 9 3.67157 9 4.5C9 5.32843 9.67157 6 10.5 6C11.3284 6 12 5.32843 12 4.5C12 3.67157 11.3284 3 10.5 3Z" fill="black"/>
</svg>

<svg viewBox="0 0 15 15" xmlns="http://www.w3.org/2000/svg"><g><path d="M10 4.5c0-.28.22-.5.5-.5 .27 0 .5.22.5.5 0 .27-.23.5-.5.5 -.28 0-.5-.23-.5-.5Z"/><path fill-rule="evenodd" d="M7.14.14c.09-.1.22-.15.35-.15h6c.82 0 1.5.67 1.5 1.5v6c0 .13-.06.25-.15.35l-7.01 7c-.2.19-.52.19-.71 0L.11 7.83c-.2-.2-.2-.52 0-.71l7-7.01Zm3.35 2.85c-.83 0-1.5.67-1.5 1.5 0 .82.67 1.5 1.5 1.5 .82 0 1.5-.68 1.5-1.5 0-.83-.68-1.5-1.5-1.5Z"/></g></svg>
